icons/svgs/chart-line-up-solid.svg

<svg width="24" height="24" viewBox="0 0 24 24" fill="none" xmlns="http://www.w3.org/2000/svg">
<path d="M4.5 4.5V17.625C4.5 17.9766 4.77344 18.25 5.125 18.25H20.75C21.4141 18.25 22 18.8359 22 19.5C22 20.2031 21.4141 20.75 20.75 20.75H5.125C3.36719 20.75 2 19.3828 2 17.625V4.5C2 3.83594 2.54688 3.25 3.25 3.25C3.91406 3.25 4.5 3.83594 4.5 4.5ZM19.1484 12.8984L17.8594 11.6484L14.7344 14.7734C14.2656 15.2812 13.4453 15.2812 12.9766 14.7734L10.125 11.9219L7.85938 14.1484C7.39062 14.6562 6.57031 14.6562 6.10156 14.1484C5.59375 13.6797 5.59375 12.8594 6.10156 12.3906L9.22656 9.26562C9.69531 8.75781 10.5156 8.75781 10.9844 9.26562L13.875 12.1172L16.1016 9.89062L14.8125 8.60156C14.2266 8.01562 14.6562 7 15.4766 7H19.8125C20.3203 7 20.75 7.42969 20.75 7.9375V12.2344C20.75 13.0938 19.7344 13.5234 19.1484 12.8984Z" fill="black"/>
</svg>

<svg xmlns="http://www.w3.org/2000/svg" width="24" height="24" fill="currentColor" class="icon-chart-line-up-solid" viewBox="0 0 24 24">
  <mask id="a" width="20" height="18" x="2" y="3" maskUnits="userSpaceOnUse" style="mask-type:alpha">
    <path d="M4.5 4.5v13.125c0 .352.273.625.625.625H20.75c.664 0 1.25.586 1.25 1.25 0 .703-.586 1.25-1.25 1.25H5.125C3.367 20.75 2 19.383 2 17.625V4.5c0-.664.547-1.25 1.25-1.25.664 0 1.25.586 1.25 1.25m14.648 8.398-1.289-1.25-3.125 3.125a1.205 1.205 0 0 1-1.757 0l-2.852-2.851-2.266 2.226a1.205 1.205 0 0 1-1.757 0 1.205 1.205 0 0 1 0-1.757l3.125-3.125a1.205 1.205 0 0 1 1.757 0l2.891 2.851 2.227-2.226-1.29-1.29C14.228 8.017 14.657 7 15.478 7h4.336a.95.95 0 0 1 .937.938v4.296c0 .86-1.016 1.29-1.602.664"/>
  </mask>
  <g mask="url(#a)">
    <path d="M0 0h24v24H0z"/>
  </g>
</svg>
